X:8511413
T:Wild Wood Waltz
S:Amand & Germaine Savoie, $2A New Brunswick Lumberjack Fiddler.$0 Musk MEL 85-1.
H:Amand Savoie had interesting timing to his music, which I've tried to notate in 
H:another version. Here I approximate the timing as well as possible while keeping 
H:the music more readable.
N:From NH Country Dance (URL below), along with many New England, Canadian & Swedish
N:tunes, and resources for abc notation and New England traditional music and dance.
%
N: Note #1: To preserve formatting (font, spacing, etc.), use the
N: file header at the URL below; just follow accompanying instructions.
%
N: Note #2: This abc code is optimized for use with abcm2ps, which is used by
N: EasyABC and other abc apps. To abc2svg for display or printing look to see if there
N: is a file optimized for abc2svg. If not you may need to adjust the spacing in places.
%
Z:abc-transcription Peter Yarensky. I rely heavily on careful listening to the
Z:named sources aided by software to hear details. While not perfect, known
Z:substantial differences from other written sources receive careful attention.
Z:abc-copyright Peter Yarensky. You may reproduce this tune freely but
Z:please include the entire abc file including all the notes.
%%writefields HQSD
U:s = !slide!
U:t = !trill!
F:Tunes Home Page - https://fiddle-tunes.nhcountrydance.com/
F:abc Header & its Usage - https://fiddle-tunes.nhcountrydance.com/header-page/
M:3/4
L:1/8
R:Waltz
G:Couples Dances ~ Waltzes ~ Canadian
N: Tune Tags ~ Waltz, Canadian
K:G
%%textfont Palatino-Italic 14
%%text Some complex timing rounded for readability
%%textfont Palatino-Roman 16
%%text End on an A part
%%vskip 10
D EF |\
"G" G2 G,z z G, | "G" G,2>.A,2 B,2 | "C" C2>B,2 CD | "Am" E2>B2 AG |\
"D7" F2>E2 FG | "D7" A2 B2 c2 | "C" e2 d2 c2 | "G" B2>D2 E>F |
"G" G4 G,>G, | "G" G,2 A,2 B,2 | "C" C2>B,2 CD | "Am" E2>B2 A>G |\
"D7" F2>d2 ^c>d | "D7" =c2 E2 F2 | "C" G2>F2 GA | "G" G2 ||
A2 B2 |\
"C" c2 e2-ee | "C" e2 d2 ((3cdc) | "G" B2 g2-ga | "Em" g2 ((3fgf) e2 |\
"D7" f2 a2-ab | "D7" af g2 a2 | "C" b2>g2 d2 | "G" B2> B2 AB |
"C" c2 e2>e2 | "C" e2 d2 ((3cdc) | "G" B2 g2>a2 | "Em" g2 ((3fgf) e2 |\
"D7" f2 a2>f2 | "D7" d2>b2 a2 | "C" g4-ga | "G" g3 |]
%%vskip 10
%%text The above chords are as played by Germaine Savoie. Here is how I back up the tune.
%%textfont Courier 12
%%begintext
%% || G   G   C   Am     D7   D7   G   D7      G   G   C   Am     D7   D7   G   G7 ||
%% || C   C   G   G      D7   D7   G   D7      C   C   G   G      D7   D7   G   G  ||
%%endtext
%%vskip 20

